icons/midnadark/actions/24/upload-media.svg

<?xml version="1.0" encoding="UTF-8" standalone="no"?>
<!-- Created with Inkscape (http://www.inkscape.org/) -->

<svg
   xmlns:dc="http://purl.org/dc/elements/1.1/"
   xmlns:cc="http://creativecommons.org/ns#"
   xmlns:rdf="http://www.w3.org/1999/02/22-rdf-syntax-ns#"
   xmlns:svg="http://www.w3.org/2000/svg"
   xmlns="http://www.w3.org/2000/svg"
   xmlns:sodipodi="http://sodipodi.sourceforge.net/DTD/sodipodi-0.dtd"
   xmlns:inkscape="http://www.inkscape.org/namespaces/inkscape"
   id="svg7384"
   height="22"
   width="22"
   version="1.1"
   inkscape:version="0.91 r13725"
   sodipodi:docname="upload-media.svg"
   inkscape:export-filename="/home/uri/Descargas/NITRUX-KDE/NITRUX-KDE/16x16/actions/view-preview.png"
   inkscape:export-xdpi="30"
   inkscape:export-ydpi="30">
  <defs
     id="defs9">
    <linearGradient
       id="linearGradient3257">
      <stop
         id="stop3259"
         style="stop-color:#a50000;stop-opacity:1"
         offset="0" />
      <stop
         id="stop3261"
         style="stop-color:#e73800;stop-opacity:1"
         offset="1" />
    </linearGradient>
    <clipPath
       id="clipPath4210"
       clipPathUnits="userSpaceOnUse">
      <rect
         style="opacity:1;fill:#0000ff;fill-opacity:0.51376145;stroke:none;stroke-opacity:1"
         id="rect4212"
         width="34"
         height="34"
         x="-7"
         y="1024.3622" />
    </clipPath>
    <clipPath
       id="clipPath4160"
       clipPathUnits="userSpaceOnUse">
      <rect
         y="1028.3619"
         x="-6"
         height="32.000015"
         width="32"
         id="rect4162"
         style="opacity:1;fill:#aade87;fill-opacity:0.47247709;stroke:none;stroke-opacity:1" />
    </clipPath>
  </defs>
  <sodipodi:namedview
     pagecolor="#ffffff"
     bordercolor="#666666"
     borderopacity="1"
     objecttolerance="10"
     gridtolerance="10"
     guidetolerance="10"
     inkscape:pageopacity="0"
     inkscape:pageshadow="2"
     inkscape:window-width="1366"
     inkscape:window-height="633"
     id="namedview7"
     showgrid="true"
     inkscape:zoom="8.2500001"
     inkscape:cx="44.232333"
     inkscape:cy="13.989154"
     inkscape:window-x="0"
     inkscape:window-y="33"
     inkscape:window-maximized="1"
     inkscape:current-layer="svg7384"
     inkscape:showpageshadow="false"
     borderlayer="true"
     inkscape:snap-bbox="true"
     inkscape:object-nodes="true"
     showguides="false">
    <sodipodi:guide
       position="2,20"
       orientation="18,0"
       id="guide4064" />
    <sodipodi:guide
       position="2,2"
       orientation="0,18"
       id="guide4066" />
    <sodipodi:guide
       position="20,2"
       orientation="-18,0"
       id="guide4068" />
    <sodipodi:guide
       position="20,20"
       orientation="0,-18"
       id="guide4070" />
    <sodipodi:guide
       position="3,19"
       orientation="16,0"
       id="guide4072" />
    <sodipodi:guide
       position="3,3"
       orientation="0,16"
       id="guide4074" />
    <sodipodi:guide
       position="19,3"
       orientation="-16,0"
       id="guide4076" />
    <sodipodi:guide
       position="2.4855874,4"
       orientation="0,-16"
       id="guide4078" />
    <inkscape:grid
       type="xygrid"
       id="grid4080" />
    <sodipodi:guide
       position="5,17"
       orientation="12,0"
       id="guide4089" />
    <sodipodi:guide
       position="5,5"
       orientation="0,12"
       id="guide4091" />
    <sodipodi:guide
       position="17,5"
       orientation="-12,0"
       id="guide4093" />
    <sodipodi:guide
       position="17,17"
       orientation="0,-12"
       id="guide4095" />
    <sodipodi:guide
       position="5,10"
       orientation="5,0"
       id="guide4127" />
    <sodipodi:guide
       position="5,5"
       orientation="0,5"
       id="guide4129" />
    <sodipodi:guide
       position="10,5"
       orientation="-5,0"
       id="guide4131" />
    <sodipodi:guide
       position="10,10"
       orientation="0,-5"
       id="guide4133" />
    <sodipodi:guide
       position="10,12"
       orientation="7,0"
       id="guide4135" />
    <sodipodi:guide
       position="10,5"
       orientation="0,7"
       id="guide4137" />
    <sodipodi:guide
       position="17,5"
       orientation="-7,0"
       id="guide4139" />
    <sodipodi:guide
       position="15,12"
       orientation="0,-7"
       id="guide4141" />
    <sodipodi:guide
       position="5,17"
       orientation="5,0"
       id="guide4147" />
    <sodipodi:guide
       position="5,12"
       orientation="0,5"
       id="guide4149" />
    <sodipodi:guide
       position="10,12"
       orientation="-5,0"
       id="guide4151" />
    <sodipodi:guide
       position="10,17"
       orientation="0,-5"
       id="guide4153" />
    <sodipodi:guide
       position="7.6999952,5.7071148"
       orientation="0.70710678,0.70710678"
       id="guide4175" />
    <sodipodi:guide
       position="8.407102,5.000008"
       orientation="-6.2932501,6.2932501"
       id="guide4177" />
    <sodipodi:guide
       position="13.993245,12.000365"
       orientation="6.2932501,-6.2932501"
       id="guide4181" />
    <sodipodi:guide
       position="9.3066406,10"
       orientation="0.707031,-0.7070312"
       id="guide4188" />
    <sodipodi:guide
       position="8.5996094,9.292969"
       orientation="2.050781,2.0488286"
       id="guide4190" />
    <sodipodi:guide
       position="11.355469,7.949219"
       orientation="-2.050781,-2.0488284"
       id="guide4194" />
    <sodipodi:guide
       position="20.300349,5.7071173"
       orientation="0.70710678,-0.70710678"
       id="guide4203" />
    <sodipodi:guide
       position="19.593242,5.0000105"
       orientation="-6.2932501,-6.2932501"
       id="guide4205" />
    <sodipodi:guide
       position="14.007099,12.000367"
       orientation="6.2932501,6.2932501"
       id="guide4209" />
  </sodipodi:namedview>
  <metadata
     id="metadata90">
    <rdf:RDF>
      <cc:Work
         rdf:about="">
        <dc:format>image/svg+xml</dc:format>
        <dc:type
           rdf:resource="http://purl.org/dc/dcmitype/StillImage" />
        <dc:title>Gnome Symbolic Icon Theme</dc:title>
      </cc:Work>
    </rdf:RDF>
  </metadata>
  <title
     id="title9167">Gnome Symbolic Icon Theme</title>
  <g
     id="g4200"
     transform="translate(9.8092081e-7,4.7694561e-6)"
     style="fill:#ffffff;fill-opacity:1">
    <g
       inkscape:label="Capa 1"
       id="layer1"
       transform="matrix(1.0659897,0,0,1.0659897,-349.30452,-569.2845)"
       style="fill:#ffffff;fill-opacity:1">
      <g
         transform="matrix(0.66666665,0,0,0.66666665,70.952388,189.83021)"
         id="layer1-41"
         inkscape:label="Capa 1"
         style="fill:#ffffff;fill-opacity:1">
        <g
           inkscape:label="Capa 1"
           id="layer1-94"
           transform="matrix(1.9441321,0,0,1.9441321,385.04187,-1498.7175)"
           style="fill:#ffffff;fill-opacity:1">
          <g
             transform="matrix(0.90537551,0,0,0.90537551,-365.91682,562.06022)"
             id="layer1-0"
             inkscape:label="Capa 1"
             style="fill:#ffffff;fill-opacity:1;stroke:#4f96d1;stroke-opacity:1" />
          <g
             transform="translate(-401.01229,510.63371)"
             id="layer1-00"
             inkscape:label="Capa 1"
             style="fill:#ffffff;fill-opacity:1">
            <g
               transform="translate(5.05585,-5.251147)"
               id="layer1-4"
               inkscape:label="Capa 1"
               style="fill:#ffffff;fill-opacity:1">
              <g
                 transform="translate(-11.317,5.8824915)"
                 id="layer1-9"
                 inkscape:label="Capa 1"
                 style="stroke:#000000;stroke-opacity:0.8;fill:#ffffff;fill-opacity:1">
                <g
                   transform="translate(1.8733025,-0.28410538)"
                   id="layer1-79"
                   inkscape:label="Capa 1"
                   style="fill:#ffffff;fill-opacity:1">
                  <g
                     transform="translate(-2.0518724,-0.97858527)"
                     id="layer1-2"
                     inkscape:label="Capa 1"
                     style="fill:#ffffff;fill-opacity:1">
                    <g
                       transform="translate(0.22097092,0.44194173)"
                       id="layer1-26"
                       inkscape:label="Capa 1"
                       style="fill:#ffffff;fill-opacity:1">
                      <g
                         transform="translate(1.3573925,-1.2626907)"
                         id="layer1-46"
                         inkscape:label="Capa 1"
                         style="fill:#ffffff;fill-opacity:1">
                        <g
                           transform="translate(-0.41037448,-0.59977801)"
                           id="layer1-21"
                           inkscape:label="Capa 1"
                           style="fill:#ffffff;fill-opacity:1">
                          <g
                             transform="matrix(0.7863692,0,0,0.78394543,92.594038,111.881)"
                             id="g4187"
                             style="fill:#ffffff;fill-opacity:1">
                            <g
                               transform="matrix(1.2716673,0,0,1.275599,-114.25636,-140.42007)"
                               id="layer1-3"
                               inkscape:label="Capa 1"
                               style="fill:#ffffff;fill-opacity:1">
                              <g
                                 transform="matrix(0.7863692,0,0,0.78394543,93.325829,112.35451)"
                                 id="g4187-5"
                                 style="fill:#ffffff;fill-opacity:1">
                                <g
                                   transform="matrix(1.2716673,0,0,1.275599,-115.14682,-140.92987)"
                                   id="layer1-5"
                                   inkscape:label="Capa 1"
                                   style="fill:#ffffff;fill-opacity:1">
                                <g
                                   transform="matrix(0.7863692,0,0,0.78394543,93.325829,112.35451)"
                                   id="g4187-4"
                                   style="fill:#ffffff;fill-opacity:1">
                                <path
                                   style="fill:#ffffff;fill-opacity:1;stroke:none"
                                   d="M 3.2851562 3 C 2.8363828 3 2.4726562 3.3640808 2.4726562 3.8125 L 2.4726562 18.1875 C 2.4726562 18.63632 2.8366979 19 3.2851562 19 L 18.714844 19 C 19.163628 19 19.527344 18.635919 19.527344 18.1875 L 19.527344 3.8125 C 19.527344 3.3636801 19.163313 3 18.714844 3 L 3.2851562 3 z M 11 4.15625 C 11.115912 4.1489248 11.233602 4.1886031 11.322266 4.2773438 L 13.25 6.40625 C 13.413702 6.5705501 13.413702 6.8356999 13.25 7 C 13.08629 7.1643001 12.820156 7.1643001 12.65625 7 L 11 5.1699219 L 9.34375 7 C 9.1798482 7.1643001 8.9139018 7.1643001 8.75 7 C 8.5860941 6.8356999 8.5860941 6.5705501 8.75 6.40625 L 10.677734 4.2773438 C 10.766407 4.1885664 10.883884 4.1489329 11 4.15625 z M 10.998047 6.7929688 C 11.379763 6.7929688 11.689453 7.1041482 11.689453 7.4863281 C 11.689453 7.868508 11.379763 8.1777344 10.998047 8.1777344 C 10.61633 8.1777344 10.306641 7.868508 10.306641 7.4863281 C 10.306641 7.1041482 10.61633 6.7929688 10.998047 6.7929688 z M 10.998047 8.7714844 C 11.379763 8.7714844 11.689453 9.0807148 11.689453 9.4628906 C 11.689453 9.8450705 11.379763 10.154297 10.998047 10.154297 C 10.61633 10.154297 10.306641 9.8450705 10.306641 9.4628906 C 10.306641 9.0807148 10.61633 8.7714844 10.998047 8.7714844 z M 8.4199219 9.6738281 C 8.5983649 9.6572321 8.7870068 9.748666 8.9433594 9.953125 L 12.158203 14.158203 C 12.470919 14.567154 13.019079 14.602647 13.380859 14.236328 L 14.166016 13.439453 C 14.527481 13.073047 15.060451 13.11731 15.355469 13.539062 L 17.392578 16.451172 C 17.686966 16.873499 17.508764 17.214844 16.994141 17.214844 L 11 17.214844 L 5.2714844 17.214844 C 4.7569149 17.214844 4.5277845 16.842442 4.7597656 16.382812 L 7.9570312 10.044922 C 8.0728588 9.8151072 8.2414789 9.6904241 8.4199219 9.6738281 z "
                                   transform="matrix(0.9204199,0,0,0.92326559,390.98702,525.37117)"
                                   id="Images" />
                                </g>
                                </g>
                              </g>
                            </g>
                          </g>
                        </g>
                      </g>
                    </g>
                  </g>
                </g>
              </g>
            </g>
          </g>
        </g>
      </g>
    </g>
    <g
       style="fill:#ffffff;fill-opacity:1"
       inkscape:label="Capa 1"
       id="layer1-468"
       transform="matrix(0.51911183,0,0,-0.51911183,6.8042667,549.25135)">
      <g
         transform="matrix(0.90537551,0,0,0.90537551,-365.91682,562.06022)"
         id="layer1-0-3"
         inkscape:label="Capa 1"
         style="fill:#ffffff;fill-opacity:1;stroke:#4f96d1;stroke-opacity:1" />
      <g
         style="fill:#ffffff;fill-opacity:1"
         transform="translate(-401.01229,510.63371)"
         id="layer1-00-0"
         inkscape:label="Capa 1">
        <g
           style="fill:#ffffff;fill-opacity:1"
           transform="translate(5.05585,-5.251147)"
           id="layer1-4-9"
           inkscape:label="Capa 1">
          <g
             transform="translate(-11.317,5.8824915)"
             id="layer1-9-6"
             inkscape:label="Capa 1"
             style="fill:#ffffff;fill-opacity:1;stroke:#000000;stroke-opacity:0.8">
            <g
               transform="translate(1.8733025,-0.28410538)"
               id="layer1-79-3"
               inkscape:label="Capa 1"
               style="fill:#ffffff;fill-opacity:1">
              <g
                 transform="matrix(0.7863692,0,0,0.78394543,93.525529,112.35451)"
                 id="g4187-8"
                 style="fill:#ffffff;fill-opacity:1" />
            </g>
          </g>
        </g>
      </g>
    </g>
  </g>
</svg>

<svg xmlns="http://www.w3.org/2000/svg" viewBox="0 0 22 22"><defs><clipPath><path fill="#00f" fill-opacity=".514" d="m-7 1024.36h34v34h-34z"/></clipPath><clipPath><path fill="#aade87" fill-opacity=".472" d="m-6 1028.36h32v32h-32z"/></clipPath></defs><g fill="#fff"><path d="m3.285 3c-.449 0-.813.364-.813.813v14.375c0 .449.364.813.813.813h15.43c.449 0 .813-.364.813-.813v-14.375c0-.449-.364-.813-.813-.813h-15.43m7.715 1.156c.116-.007.234.032.322.121l1.928 2.129c.164.164.164.429 0 .594-.164.164-.43.164-.594 0l-1.656-1.83-1.656 1.83c-.164.164-.43.164-.594 0-.164-.164-.164-.429 0-.594l1.928-2.129c.089-.089.206-.128.322-.121m-.002 2.637c.382 0 .691.311.691.693 0 .382-.31.691-.691.691-.382 0-.691-.309-.691-.691 0-.382.31-.693.691-.693m0 1.979c.382 0 .691.309.691.691 0 .382-.31.691-.691.691-.382 0-.691-.309-.691-.691 0-.382.31-.691.691-.691m-2.578.902c.178-.017.367.075.523.279l3.215 4.205c.313.409.861.444 1.223.078l.785-.797c.361-.366.894-.322 1.189.1l2.037 2.912c.294.422.116.764-.398.764h-5.994-5.729c-.515 0-.744-.372-.512-.832l3.197-6.338c.116-.23.284-.354.463-.371" transform="translate(.029.008)" fill="#fff" stroke="none" stroke-opacity=".8"/></g></svg>
